icons/svg/compare.svg

﻿<?xml version="1.0" encoding="utf-8"?>
<!DOCTYPE svg PUBLIC "-//W3C//DTD SVG 1.1//EN" "http://www.w3.org/Graphics/SVG/1.1/DTD/svg11.dtd">
<svg xmlns="http://www.w3.org/2000/svg" xmlns:xlink="http://www.w3.org/1999/xlink" version="1.1" baseProfile="full" width="24" height="24" viewBox="0 0 24.00 24.00" enable-background="new 0 0 24.00 24.00" xml:space="preserve">
	<path fill="#000000" fill-opacity="1" stroke-width="0.2" stroke-linejoin="round" d="M 18.9994,2.99807L 13.9994,2.99807L 13.9994,4.99807L 18.9994,4.99807L 18.9994,17.9981L 13.9994,11.9981L 13.9994,20.9981L 18.9994,20.9981C 20.1034,20.9981 20.9994,20.1031 20.9994,18.9981L 20.9994,4.99807C 20.9994,3.89307 20.1034,2.99807 18.9994,2.99807 Z M 9.99939,17.9981L 4.99939,17.9981L 9.99939,11.9981M 9.99939,2.99807L 4.99939,2.99807C 3.89438,2.99807 2.99939,3.89307 2.99939,4.99807L 2.99939,18.9981C 2.99939,20.1031 3.89438,20.9981 4.99939,20.9981L 9.99939,20.9981L 9.99939,22.9981L 11.9994,22.9981L 11.9994,0.998068L 9.99939,0.998068L 9.99939,2.99807 Z "/>
</svg>

<svg xmlns="http://www.w3.org/2000/svg" version="1.1" baseProfile="full" width="24" height="24" viewBox="0 0 24.00 24.00" xml:space="preserve"><path fill="#000" fill-opacity="1" stroke-width=".2" stroke-linejoin="round" d="M19 2.998h-5v2h5v13l-5-6v9h5c1.103 0 2-.895 2-2v-14c0-1.105-.897-2-2-2zm-9 15H5l5-6m0-9H5c-1.106 0-2 .895-2 2v14c0 1.105.894 2 2 2h5v2h2v-22h-2v2z"/></svg>
